src/static/logos/webcomponents.svg

<svg width="256" height="171" xmlns="http://www.w3.org/2000/svg" preserveAspectRatio="xMidYMid"><path d="M87.329 169.901L38.607 36.6 172.407.809l24.339 139.814-50.73 29.831-58.687-.553" fill="#E44D26"/><path d="M142.99 158.831l40.987-24.116-20.804-119.48-54.683 14.629 34.5 128.967" fill="#F16529"/><path d="M236.043 69.772l6.234 21.45-47.728 13.485s0 28.707-23.162 40.119c-23.159 11.412-41.151 1.735-41.151 1.735l-2.881-8.301 34.356-9.341 7.604-29.403-22.134-21.771-31.817 9.623-2.763-7.552c0 .001 14.866-32.856 58.792-14.169 0 0 13.842 8.637 16.946 16.254l47.704-12.129zm6.234-1.611l7.605-2.191L256 87.875l-7.96 2.414-5.763-22.128z" fill="#EFEFEF"/><path d="M244.956 67.194l4.926-1.224L256 87.875l-7.96 2.414-2.084-7.335 3.176-1.243-4.176-14.517zm-14.176 3.92l5.263-1.342 6.234 21.45-47.728 13.485s-.514 25.048-17.124 36.39c-16.582 11.332-35.27 10.991-47.195 5.465l-1.329-3.828s32.454 7.631 48.524-16.754c9.691-16.077 9.52-27.667 9.52-27.667l47.893-12.965-4.058-14.234zm-118.185 8.689l28.014-8.13 6.56 6.058-31.811 9.623-2.763-7.551z" fill="#BCBCBC"/><path d="M13.834 95.006l5.624 21.614 47.894-12.828s14.696 24.654 40.441 22.601c25.753-2.052 36.244-19.569 36.244-19.569l-1.775-8.603-34.291 9.557-21.583-21.357 7.873-30.049 32.266-8.012-1.494-7.906s-29.58-20.622-57.766 17.905c0 0-7.46 14.498-6.243 22.629l-47.19 14.018zm-6.177 1.809L0 98.821l5.954 21.943 8.077-1.993-6.374-21.956z" fill="#EFEFEF"/><path d="M4.862 97.346L0 98.821l5.954 21.943 8.077-1.993-1.954-7.375-3.38.561-3.835-14.611zm14.195-3.881l-5.223 1.541 5.624 21.614 47.894-12.828s13.267 21.247 33.337 22.497c20.05 1.237 35.922-8.604 43.348-19.465l-.809-3.966s-23.989 23.168-50.281 10.439c-16.55-8.853-22.326-18.912-22.326-18.912l-47.788 13.38-3.776-14.3zm105.976-53.004l-28.219 7.341-2.546 8.571 32.265-8.012-1.5-7.9z" fill="#BCBCBC"/></svg>

<?xml version="1.0" encoding="UTF-8" standalone="no"?>
<svg width="256px" height="171px" viewBox="0 0 256 171" version="1.1" xmlns="http://www.w3.org/2000/svg" xmlns:xlink="http://www.w3.org/1999/xlink" preserveAspectRatio="xMidYMid">
	<g>
		<path d="M87.329,169.901 L38.607,36.6 L172.407,0.809 L196.746,140.623 L146.016,170.454 L87.329,169.901" fill="#E44D26"></path>
		<path d="M142.99,158.831 L183.977,134.715 L163.173,15.235 L108.49,29.864 L142.99,158.831" fill="#F16529"></path>
		<path d="M236.043,69.772 L242.277,91.222 L194.549,104.707 C194.549,104.707 194.549,133.414 171.387,144.826 C148.228,156.238 130.236,146.561 130.236,146.561 L127.355,138.26 L161.711,128.919 L169.315,99.516 L147.181,77.745 L115.364,87.368 L112.601,79.816 C112.601,79.817 127.467,46.96 171.393,65.647 C171.393,65.647 185.235,74.284 188.339,81.901 L236.043,69.772 L236.043,69.772 Z M242.277,68.161 L249.882,65.97 L256,87.875 L248.04,90.289 L242.277,68.161 L242.277,68.161 Z" fill="#EFEFEF"></path>
		<path d="M244.956,67.194 L249.882,65.97 L256,87.875 L248.04,90.289 L245.956,82.954 L249.132,81.711 L244.956,67.194 L244.956,67.194 Z M230.78,71.114 L236.043,69.772 L242.277,91.222 L194.549,104.707 C194.549,104.707 194.035,129.755 177.425,141.097 C160.843,152.429 142.155,152.088 130.23,146.562 L128.901,142.734 C128.901,142.734 161.355,150.365 177.425,125.98 C187.116,109.903 186.945,98.313 186.945,98.313 L234.838,85.348 L230.78,71.114 L230.78,71.114 Z M112.595,79.803 L140.609,71.673 L147.169,77.731 L115.358,87.354 L112.595,79.803 L112.595,79.803 Z" fill="#BCBCBC"></path>
		<path d="M13.834,95.006 L19.458,116.62 L67.352,103.792 C67.352,103.792 82.048,128.446 107.793,126.393 C133.546,124.341 144.037,106.824 144.037,106.824 L142.262,98.221 L107.971,107.778 L86.388,86.421 L94.261,56.372 L126.527,48.36 L125.033,40.454 C125.033,40.454 95.453,19.832 67.267,58.359 C67.267,58.359 59.807,72.857 61.024,80.988 L13.834,95.006 L13.834,95.006 Z M7.657,96.815 L0,98.821 L5.954,120.764 L14.031,118.771 L7.657,96.815 L7.657,96.815 Z" fill="#EFEFEF"></path>
		<path d="M4.862,97.346 L0,98.821 L5.954,120.764 L14.031,118.771 L12.077,111.396 L8.697,111.957 L4.862,97.346 L4.862,97.346 Z M19.057,93.465 L13.834,95.006 L19.458,116.62 L67.352,103.792 C67.352,103.792 80.619,125.039 100.689,126.289 C120.739,127.526 136.611,117.685 144.037,106.824 L143.228,102.858 C143.228,102.858 119.239,126.026 92.947,113.297 C76.397,104.444 70.621,94.385 70.621,94.385 L22.833,107.765 L19.057,93.465 L19.057,93.465 Z M125.033,40.461 L96.814,47.802 L94.268,56.373 L126.533,48.361 L125.033,40.461 L125.033,40.461 Z" fill="#BCBCBC"></path>
	</g>
</svg>
